packages/icons/src/SVG/csv.svg

<svg width="12" height="12" viewBox="0 0 12 12" fill="none" xmlns="http://www.w3.org/2000/svg">
<path fill-rule="evenodd" clip-rule="evenodd" d="M1 0V6H2V1H7V4H10V6H11V2L9 0H1ZM10 3V2.41421L8.58579 1H8V3H10Z" fill="#4C505B"/>
<path d="M1.89307 7.67715C2.08219 7.59057 2.29639 7.54727 2.53564 7.54727C2.73844 7.54727 2.93441 7.57689 3.12354 7.63614C3.31266 7.69538 3.49382 7.76602 3.66699 7.84805L3.9541 7.1713C3.74674 7.06876 3.52116 6.99014 3.27734 6.93546C3.03581 6.87849 2.78971 6.85001 2.53906 6.85001C2.15853 6.85001 1.82015 6.91267 1.52393 7.03799C1.22998 7.16104 0.982747 7.33764 0.782227 7.56778C0.581706 7.79564 0.429036 8.0668 0.324219 8.38126C0.219401 8.69571 0.166992 9.04206 0.166992 9.42032C0.166992 9.93757 0.249023 10.3887 0.413086 10.7738C0.579427 11.1589 0.830078 11.4574 1.16504 11.6693C1.50228 11.8813 1.92611 11.9872 2.43652 11.9872C2.70768 11.9872 2.94694 11.969 3.1543 11.9325C3.36165 11.8961 3.56673 11.838 3.76953 11.7582V11.0609C3.55534 11.1316 3.34798 11.1874 3.14746 11.2284C2.94694 11.2694 2.74072 11.2899 2.52881 11.2899C2.18701 11.2899 1.90446 11.2159 1.68115 11.0678C1.45785 10.9174 1.2915 10.7032 1.18213 10.4252C1.07275 10.1449 1.01807 9.81111 1.01807 9.42374C1.01807 9.13435 1.05225 8.87458 1.12061 8.64444C1.18896 8.41202 1.28809 8.21491 1.41797 8.05313C1.54785 7.88907 1.70622 7.76374 1.89307 7.67715Z" fill="#4C505B"/>
<path d="M7.29102 10.5585C7.29102 10.8547 7.2181 11.1099 7.07227 11.3241C6.92871 11.5383 6.72135 11.7024 6.4502 11.8163C6.18131 11.9302 5.86003 11.9872 5.48633 11.9872C5.30404 11.9872 5.12972 11.977 4.96338 11.9565C4.79704 11.9359 4.63981 11.9063 4.4917 11.8676C4.34587 11.8266 4.21256 11.7776 4.0918 11.7206V10.9482C4.2946 11.037 4.52132 11.1179 4.77197 11.1908C5.02262 11.2615 5.27783 11.2968 5.5376 11.2968C5.74951 11.2968 5.92497 11.2694 6.06396 11.2148C6.20524 11.1578 6.31006 11.078 6.37842 10.9755C6.44678 10.8707 6.48096 10.7488 6.48096 10.6098C6.48096 10.4617 6.44108 10.3363 6.36133 10.2338C6.28158 10.1313 6.16081 10.0378 5.99902 9.95352C5.83952 9.86693 5.639 9.77465 5.39746 9.67667C5.2334 9.61059 5.07617 9.53539 4.92578 9.45108C4.77767 9.36677 4.64551 9.26765 4.5293 9.15372C4.41309 9.03978 4.3208 8.90534 4.25244 8.7504C4.18636 8.59317 4.15332 8.4086 4.15332 8.19669C4.15332 7.91413 4.22054 7.6726 4.35498 7.47208C4.4917 7.27156 4.68311 7.11775 4.9292 7.01065C5.17757 6.90355 5.46696 6.85001 5.79736 6.85001C6.05941 6.85001 6.3055 6.87735 6.53564 6.93204C6.76807 6.98672 6.99593 7.0642 7.21924 7.16446L6.95947 7.82413C6.75439 7.73982 6.55501 7.6726 6.36133 7.62247C6.16992 7.57234 5.97396 7.54727 5.77344 7.54727C5.60026 7.54727 5.45329 7.57348 5.33252 7.62589C5.21175 7.67829 5.11947 7.75235 5.05566 7.84805C4.99414 7.94148 4.96338 8.05313 4.96338 8.18301C4.96338 8.32885 4.9987 8.45189 5.06934 8.55215C5.14225 8.65014 5.25391 8.74014 5.4043 8.82217C5.55697 8.90421 5.75293 8.99535 5.99219 9.09561C6.2679 9.20954 6.50146 9.32917 6.69287 9.4545C6.88656 9.57982 7.03467 9.73021 7.13721 9.90567C7.23975 10.0788 7.29102 10.2965 7.29102 10.5585Z" fill="#4C505B"/>
<path d="M8.34082 6.92178H7.5L9.24658 11.9189H10.1147L11.8613 6.92178H11.0205L9.96436 10.0492C9.93245 10.1426 9.89827 10.2543 9.86182 10.3842C9.82536 10.5141 9.79004 10.6451 9.75586 10.7773C9.72396 10.9094 9.69889 11.0268 9.68066 11.1293C9.66243 11.0268 9.63623 10.9094 9.60205 10.7773C9.57015 10.6451 9.53483 10.5141 9.49609 10.3842C9.45964 10.2543 9.42546 10.1438 9.39355 10.0526L8.34082 6.92178Z" fill="#4C505B"/>
</svg>

<!-- Generated by IcoMoon.io -->
<svg version="1.1" xmlns="http://www.w3.org/2000/svg" width="12" height="12" viewBox="0 0 12 12">
<title>csv</title>
<path d="M8.707 0h-7.707v6h1v-5h5v3h3v2h1v-3.707l-2.293-2.293zM8 1h0.293l1.707 1.707v0.293h-2v-2z"></path>
<path d="M1.893 7.677c0.189-0.087 0.403-0.13 0.643-0.13 0.203 0 0.399 0.030 0.588 0.089s0.37 0.13 0.543 0.212l0.287-0.677c-0.207-0.103-0.433-0.181-0.677-0.236-0.242-0.057-0.488-0.085-0.738-0.085-0.381 0-0.719 0.063-1.015 0.188-0.294 0.123-0.541 0.3-0.742 0.53-0.201 0.228-0.353 0.499-0.458 0.813s-0.157 0.661-0.157 1.039c0 0.517 0.082 0.968 0.246 1.353 0.166 0.385 0.417 0.684 0.752 0.895 0.337 0.212 0.761 0.318 1.271 0.318 0.271 0 0.51-0.018 0.718-0.055s0.412-0.095 0.615-0.174v-0.697c-0.214 0.071-0.422 0.127-0.622 0.167s-0.407 0.062-0.619 0.062c-0.342 0-0.624-0.074-0.848-0.222-0.223-0.15-0.39-0.365-0.499-0.643-0.109-0.28-0.164-0.614-0.164-1.001 0-0.289 0.034-0.549 0.103-0.779 0.068-0.232 0.167-0.43 0.297-0.591 0.13-0.164 0.288-0.289 0.475-0.376z"></path>
<path d="M7.291 10.558c0 0.296-0.073 0.551-0.219 0.766-0.144 0.214-0.351 0.378-0.622 0.492-0.269 0.114-0.59 0.171-0.964 0.171-0.182 0-0.357-0.010-0.523-0.031s-0.324-0.050-0.472-0.089c-0.146-0.041-0.279-0.090-0.4-0.147v-0.772c0.203 0.089 0.43 0.17 0.68 0.243 0.251 0.071 0.506 0.106 0.766 0.106 0.212 0 0.387-0.027 0.526-0.082 0.141-0.057 0.246-0.137 0.314-0.239 0.068-0.105 0.103-0.227 0.103-0.366 0-0.148-0.040-0.274-0.12-0.376s-0.201-0.196-0.362-0.28c-0.16-0.087-0.36-0.179-0.602-0.277-0.164-0.066-0.321-0.141-0.472-0.226-0.148-0.084-0.28-0.183-0.396-0.297s-0.208-0.248-0.277-0.403c-0.066-0.157-0.099-0.342-0.099-0.554 0-0.283 0.067-0.524 0.202-0.725 0.137-0.201 0.328-0.354 0.574-0.461 0.248-0.107 0.538-0.161 0.868-0.161 0.262 0 0.508 0.027 0.738 0.082 0.232 0.055 0.46 0.132 0.684 0.232l-0.26 0.66c-0.205-0.084-0.404-0.152-0.598-0.202-0.191-0.050-0.387-0.075-0.588-0.075-0.173 0-0.32 0.026-0.441 0.079s-0.213 0.126-0.277 0.222c-0.062 0.093-0.092 0.205-0.092 0.335 0 0.146 0.035 0.269 0.106 0.369 0.073 0.098 0.185 0.188 0.335 0.27 0.153 0.082 0.349 0.173 0.588 0.273 0.276 0.114 0.509 0.234 0.701 0.359 0.194 0.125 0.342 0.276 0.444 0.451 0.103 0.173 0.154 0.391 0.154 0.653z"></path>
<path d="M8.341 6.922h-0.841l1.747 4.997h0.868l1.747-4.997h-0.841l-1.056 3.127c-0.032 0.093-0.066 0.205-0.103 0.335s-0.072 0.261-0.106 0.393c-0.032 0.132-0.057 0.25-0.075 0.352-0.018-0.103-0.044-0.22-0.079-0.352-0.032-0.132-0.067-0.263-0.106-0.393-0.036-0.13-0.071-0.24-0.103-0.332l-1.053-3.131z"></path>
</svg>
